X: 21626
T: Killavil Postman, The
R: barndance
M: 4/4
K: Gmajor
M:2/4
B/c/|dg g>e|d/e/d/c/ B/A/G/E/|DG GA|B2 B>c|
dg g>e|d/e/d/c/ B/A/G|ea ab|a2 a2|
gb g>e|d/e/d/c/ B/A/G/E/|DG GA|B4|
e>B c/B/A|d/e/d/c/ B/A/G/E/|DG GA|G4||
b>f g/f/e|b>f g/f/e|bb bc'|b4|
a>f g/f/e|a>f g/f/e|aa ab|f4|
b>f g/f/e|b>f g/f/e|bb bc'|b2 g>a|
b2 a2|g2 f2|a>g f/g/a/g/|f/a/e/a/ d||

